mobile/24/svg/globe-24.svg

<svg width="24" height="24" viewBox="0 0 24 24" fill="none" xmlns="http://www.w3.org/2000/svg">
<path fill-rule="evenodd" clip-rule="evenodd" d="M12 2C6.47715 2 2 6.47715 2 12C2 17.5228 6.47715 22 12 22C17.5228 22 22 17.5228 22 12C22 6.47715 17.5228 2 12 2ZM9.73139 4.06584C6.53918 4.97686 4.13749 7.76236 3.79264 11.156H7.05877C7.23416 8.49745 8.20381 6.05551 9.73139 4.06584ZM7.05888 12.906H3.79918C4.1645 16.2505 6.52876 18.9941 9.67185 19.9169C8.17877 17.942 7.23228 15.5296 7.05888 12.906ZM11.9702 19.9153C10.1843 18.0704 9.02066 15.6225 8.81333 12.906H15.1818C14.9594 15.6282 13.7763 18.0772 11.9702 19.9153ZM8.8132 11.156C9.02249 8.4093 10.2101 5.93663 12.03 4.0842C13.8296 5.94402 14.9972 8.41534 15.1913 11.156H8.8132ZM16.9451 11.156C16.7828 8.5089 15.8333 6.07406 14.3286 4.0832C17.4909 5.01183 19.8647 7.78365 20.2074 11.156H16.9451ZM16.9369 12.906C16.7505 15.5407 15.7843 17.9601 14.2685 19.9342C17.4413 19.0288 19.8332 16.2716 20.2008 12.906H16.9369Z" fill="black"/>
</svg>

<svg width="24" height="24" fill="none" xmlns="http://www.w3.org/2000/svg"><path fill-rule="evenodd" clip-rule="evenodd" d="M12 2C6.477 2 2 6.477 2 12s4.477 10 10 10 10-4.477 10-10S17.523 2 12 2zM9.731 4.066a8.257 8.257 0 0 0-5.938 7.09h3.266a13.027 13.027 0 0 1 2.672-7.09zm-2.672 8.84h-3.26a8.258 8.258 0 0 0 5.873 7.01 13.025 13.025 0 0 1-2.613-7.01zm4.911 7.01a11.295 11.295 0 0 1-3.157-7.01h6.369a11.296 11.296 0 0 1-3.212 7.01zm-3.157-8.76a11.298 11.298 0 0 1 3.217-7.072 11.299 11.299 0 0 1 3.161 7.072H8.813zm8.132 0a13.027 13.027 0 0 0-2.616-7.073 8.257 8.257 0 0 1 5.878 7.073h-3.262zm-.008 1.75a13.026 13.026 0 0 1-2.669 7.028 8.257 8.257 0 0 0 5.933-7.028h-3.264z" fill="#000"/></svg>
